<?xml version="1.0" encoding="UTF-8"?>
<map version="1.10" tiledversion="1.11.2" orientation="orthogonal" renderorder="right-down" width="92" height="15" tilewidth="32" tileheight="32" infinite="0" nextlayerid="4" nextobjectid="1">
 <editorsettings>
  <export target="VJ-FIB/2DGame/Game/levels/level03/nivel3.csv" format="csv"/>
 </editorsettings>
 <tileset firstgid="1" source="tileset_1x1.tsx"/>
 <layer id="1" name="Background" width="92" height="15">
  <data encoding="csv">
0,0,0,0,0,0,0,0,0,0,0,0,0,0,0,0,0,0,0,0,0,0,0,0,0,0,0,0,0,0,0,0,0,0,0,0,0,0,0,0,0,0,0,0,0,0,0,0,0,0,0,0,0,0,0,0,0,0,183,185,185,184,185,184,184,185,185,184,185,184,185,185,184,185,184,184,184,184,185,184,184,184,184,193,179,178,179,179,179,179,179,180,
0,0,0,0,0,0,0,0,0,0,0,0,0,0,0,0,0,0,0,0,0,0,0,0,0,0,0,0,0,0,167,168,169,170,0,0,0,0,0,0,0,0,0,0,0,0,0,0,0,0,0,0,0,0,0,0,0,183,184,185,184,184,185,184,184,184,185,185,185,184,184,185,0,0,0,0,185,185,184,185,184,184,184,184,193,194,249,250,250,250,250,180,
0,0,0,0,0,0,0,0,0,0,0,0,0,0,0,0,0,0,0,0,0,0,0,0,0,0,0,0,0,0,183,184,185,186,0,0,0,0,0,0,0,0,0,0,0,0,0,0,0,0,0,0,0,0,0,183,184,185,184,185,184,184,185,184,185,184,185,185,184,184,185,0,0,0,0,0,0,0,185,185,184,184,184,185,184,184,249,250,250,250,250,180,
0,0,0,0,0,0,161,164,0,0,0,0,0,0,0,0,0,0,0,0,0,0,0,0,136,136,0,0,0,0,199,200,201,202,0,0,0,0,0,0,0,0,0,0,0,0,0,0,0,0,0,161,162,163,162,163,162,163,162,163,162,163,162,163,162,163,184,185,184,185,0,0,0,0,0,0,0,0,0,185,185,184,184,185,184,184,249,250,250,250,250,178,
0,0,0,0,0,136,193,196,136,167,168,169,168,169,168,169,170,0,0,0,0,0,0,0,136,136,0,0,167,169,168,169,168,169,170,0,0,0,0,0,0,167,168,170,0,0,0,0,0,0,0,177,178,179,178,179,178,179,178,179,178,179,178,179,178,179,184,185,184,185,0,0,182,0,0,0,0,0,0,0,0,185,184,185,184,184,249,250,250,250,250,178,
0,0,0,0,136,161,162,166,136,183,184,185,184,185,184,185,186,0,0,0,0,0,0,0,136,136,0,0,183,185,184,185,184,185,186,0,0,0,0,0,0,183,184,186,0,0,0,0,0,0,0,193,194,195,194,195,194,195,194,195,194,195,194,195,195,194,184,185,185,0,0,0,0,0,0,0,0,0,0,0,0,185,185,185,184,185,249,250,250,250,250,178,
0,0,0,0,136,193,194,196,136,183,184,185,184,185,184,185,186,0,0,136,136,136,136,136,136,136,0,0,183,185,184,185,184,185,186,0,0,136,136,136,0,183,184,186,0,0,0,0,0,161,162,163,162,163,162,163,162,163,162,163,162,163,162,163,162,163,166,185,185,0,0,0,0,0,0,0,0,0,0,0,0,185,185,165,162,162,163,162,163,162,163,178,
0,0,0,0,161,163,162,163,165,166,184,185,184,185,184,185,186,0,0,136,136,136,136,136,136,136,0,0,183,185,184,185,184,185,186,0,0,136,136,136,0,183,184,186,0,0,0,0,0,177,178,179,178,179,178,179,178,179,178,179,178,179,178,179,178,179,180,185,185,0,0,0,0,0,0,0,0,0,0,0,0,185,185,184,186,178,179,178,179,178,179,180,
0,0,0,0,177,179,178,179,179,180,184,185,184,185,184,185,186,0,0,0,0,0,0,0,0,0,147,0,183,185,184,185,184,185,186,0,0,0,0,0,0,183,184,186,0,0,0,0,0,193,194,195,194,195,194,195,194,195,194,195,194,195,195,194,195,196,196,185,185,0,0,0,0,0,0,0,0,0,0,0,0,185,184,184,185,186,179,178,179,178,179,180,
0,0,0,0,177,179,178,179,179,180,184,185,184,185,184,185,186,0,0,0,0,0,147,147,147,147,0,0,183,185,184,185,184,185,186,0,0,0,0,0,0,183,184,186,0,0,0,0,161,162,163,162,163,162,163,162,163,162,163,162,163,162,163,162,163,162,163,166,185,0,0,0,0,0,0,0,0,0,0,0,185,184,185,184,185,185,179,178,179,178,179,180,
0,0,0,0,177,179,178,179,179,180,184,185,165,162,162,163,163,164,0,0,0,0,0,0,0,0,0,0,183,185,165,162,162,163,163,162,163,162,163,164,0,183,184,186,0,0,0,0,177,178,179,178,179,178,179,178,179,178,179,178,179,178,179,178,179,178,179,180,184,185,0,0,0,0,0,0,0,0,0,185,184,185,184,184,185,178,179,178,179,178,179,180,
0,0,0,0,193,195,194,195,195,196,184,185,193,194,194,195,195,196,0,0,0,0,0,0,0,0,0,0,199,200,193,194,194,195,195,194,195,194,195,196,0,183,184,186,0,0,0,0,193,194,195,194,195,194,195,194,195,194,195,194,195,195,194,195,194,195,196,196,200,201,202,0,0,0,0,0,199,200,200,201,200,201,199,200,177,178,179,178,179,178,179,180,
161,162,163,162,163,163,162,163,162,163,162,163,162,163,162,163,162,163,162,163,164,0,0,0,0,0,0,161,162,163,162,163,162,163,162,163,162,162,162,162,162,162,163,162,163,162,163,162,163,162,163,162,163,163,162,163,162,163,162,163,162,163,162,162,162,163,162,162,162,162,162,163,162,162,163,162,163,162,163,162,163,162,162,162,179,178,179,178,179,178,179,180,
177,178,179,178,179,179,178,179,178,179,178,179,178,179,178,179,178,179,178,179,180,0,0,0,0,0,0,177,178,179,178,179,178,179,178,179,178,178,178,178,178,178,179,178,179,178,179,178,179,178,179,178,179,179,178,179,178,179,178,179,178,179,178,178,178,179,178,178,178,178,178,179,178,178,179,178,179,178,179,178,179,178,178,178,178,178,179,178,179,178,179,180,
193,194,195,194,195,195,194,195,194,195,194,195,194,195,194,195,194,195,194,195,196,0,0,0,0,0,0,193,194,195,194,195,194,195,194,195,194,194,194,194,194,194,195,194,195,194,195,194,195,194,195,194,195,195,194,195,194,195,194,195,194,195,194,194,194,195,194,194,194,194,194,195,194,194,195,194,195,194,195,194,195,194,194,194,194,194,195,196,194,194,195,196
</data>
 </layer>
 <layer id="3" name="Front" width="92" height="15">
  <data encoding="csv">
0,0,0,0,0,0,0,0,0,0,0,0,0,0,0,0,0,0,0,0,0,0,0,0,0,0,0,0,0,0,0,0,0,0,0,0,0,0,0,0,0,0,0,0,0,0,0,0,0,0,0,0,0,0,0,0,0,0,245,0,0,0,0,0,0,0,0,0,0,0,0,245,0,0,0,0,0,0,0,0,0,0,0,0,0,0,0,0,0,0,0,0,
0,0,0,0,0,0,0,0,0,0,0,0,0,0,0,0,0,0,0,0,0,0,0,0,0,0,0,0,0,0,0,0,0,0,0,0,0,0,0,0,0,0,0,0,0,0,0,0,0,0,0,0,0,0,0,0,0,0,0,0,0,0,0,0,0,0,0,0,0,0,0,0,0,0,0,0,0,0,0,0,0,0,0,248,0,0,233,234,234,234,235,0,
0,0,0,0,0,226,0,0,0,0,0,0,0,0,0,0,0,0,0,0,0,182,0,0,0,0,0,0,0,0,0,245,0,227,0,0,0,0,0,0,0,0,0,0,0,0,0,0,0,0,0,210,211,212,211,213,211,214,215,0,0,0,0,0,0,0,0,0,0,0,0,0,182,0,0,0,0,0,0,0,0,0,245,0,0,0,0,0,0,0,251,0,
0,0,0,0,0,242,0,244,0,0,0,136,136,136,227,136,136,136,136,136,136,182,182,136,136,136,136,136,0,0,0,0,0,243,0,0,0,0,0,0,0,0,0,0,0,0,0,0,0,0,0,0,0,0,0,0,225,0,0,0,0,0,225,0,0,0,0,0,0,0,0,0,226,0,0,0,0,0,0,0,0,0,0,0,0,0,0,0,0,0,251,0,
0,0,0,0,0,258,0,38,136,136,136,136,136,136,243,136,136,136,136,136,136,136,182,136,136,136,136,136,0,0,0,0,0,0,0,0,0,0,0,0,0,0,0,0,0,0,0,0,0,0,0,0,0,0,0,0,241,0,0,0,244,0,241,0,0,227,0,0,0,0,0,0,242,0,0,0,0,0,0,0,0,0,0,0,0,0,0,0,0,0,251,0,
0,0,0,0,0,0,0,0,136,136,245,136,232,136,259,245,219,136,136,136,136,136,182,136,136,136,136,0,0,0,0,0,0,0,0,0,0,0,0,0,0,0,0,246,0,0,0,0,0,0,0,0,0,0,0,0,257,0,0,232,228,0,257,0,0,259,0,0,0,0,0,0,242,0,0,0,0,0,0,0,0,0,0,0,0,232,232,0,0,0,251,0,
0,0,0,0,210,211,213,211,211,216,136,171,172,172,173,172,172,174,136,136,136,136,182,136,136,136,136,0,136,245,0,0,0,0,0,0,0,0,0,0,0,41,0,0,0,0,0,0,0,0,225,0,0,0,0,0,0,0,0,0,0,0,0,0,225,0,0,0,0,0,0,171,172,172,174,0,0,0,0,0,0,0,0,30,0,0,0,0,0,0,182,0,
0,0,0,0,0,136,136,136,136,136,136,187,245,136,189,136,136,190,136,136,136,136,136,136,136,136,136,276,0,0,0,0,245,0,0,227,0,0,0,0,0,171,172,174,0,0,0,0,227,0,241,0,0,0,0,0,0,0,0,0,0,0,0,0,241,0,0,0,0,0,0,187,0,227,190,0,0,0,0,0,0,0,0,247,248,30,0,0,0,0,0,0,
0,0,0,0,0,244,136,0,136,136,136,187,136,136,189,136,136,190,136,136,136,136,136,136,136,136,136,276,0,0,245,0,0,0,0,243,0,0,0,0,0,187,188,190,0,0,0,0,259,0,257,0,0,0,0,0,0,0,0,0,0,0,0,0,257,0,0,0,0,0,0,187,0,243,190,0,0,0,0,0,0,0,0,0,245,247,30,244,0,0,244,244,
226,0,0,0,0,136,136,136,136,136,136,187,136,228,205,136,232,206,227,136,136,136,136,136,136,136,136,276,0,0,209,211,218,229,0,259,229,0,0,0,0,187,0,190,0,0,0,0,0,0,0,0,0,225,0,0,0,0,0,0,225,0,0,0,0,0,0,0,0,0,171,172,172,174,190,0,0,173,0,0,0,0,0,0,0,231,30,0,244,0,0,0,
242,0,0,0,0,136,136,244,0,136,0,187,136,136,136,136,225,136,243,136,136,136,136,136,136,136,136,276,0,0,0,0,0,0,225,0,0,0,0,0,0,187,0,190,0,0,0,0,0,0,0,0,0,241,0,0,0,0,0,0,241,0,0,0,226,0,0,0,0,0,187,0,0,190,190,0,0,189,0,0,0,0,0,0,228,30,0,0,0,0,0,0,
258,0,210,212,211,211,214,215,0,38,0,203,218,232,229,231,257,229,259,136,136,136,136,136,136,136,136,136,0,0,0,0,0,0,257,0,0,229,230,0,0,187,0,190,0,210,211,213,211,214,216,217,229,257,0,0,0,0,0,0,257,0,0,0,258,0,0,0,0,229,203,0,0,206,206,0,0,205,0,41,0,210,218,0,30,0,244,0,244,0,0,0,
0,0,0,0,0,136,136,136,136,136,0,136,136,136,136,136,136,136,136,136,136,136,136,136,136,136,136,136,0,0,0,0,0,0,0,0,0,0,0,0,0,0,0,0,0,0,0,0,0,0,0,0,0,0,0,0,0,0,0,0,0,0,0,0,0,0,0,0,0,0,0,0,0,0,0,0,0,0,0,0,0,0,0,0,0,0,0,0,0,0,0,0,
0,0,0,0,0,136,136,136,136,136,136,136,136,136,136,136,136,136,136,136,136,136,136,136,136,136,136,136,0,0,0,0,0,0,0,0,0,0,0,0,0,0,0,0,0,0,0,0,0,0,0,0,0,0,0,0,0,0,0,0,0,0,244,0,0,0,0,0,0,0,0,0,0,0,0,0,0,0,0,0,0,0,0,0,0,0,0,0,244,0,0,0,
0,0,0,0,0,136,136,136,136,136,136,136,136,136,136,136,136,136,136,136,136,136,136,136,136,136,136,136,0,0,0,0,0,0,0,0,0,0,0,0,0,0,0,244,0,0,0,0,0,0,0,0,0,0,0,0,0,0,0,0,0,0,0,0,0,0,0,0,0,0,0,0,0,0,0,0,0,0,0,0,0,0,0,0,0,0,0,0,0,0,0,0
</data>
 </layer>
 <layer id="2" name="NO" width="92" height="15" visible="0">
  <data encoding="csv">
0,0,0,0,0,0,0,0,0,0,0,0,0,0,0,0,0,0,0,0,0,0,0,0,0,0,0,0,0,0,0,0,0,0,0,0,0,0,0,0,0,0,0,0,0,0,0,0,0,0,0,0,0,0,0,0,0,0,0,0,0,0,0,0,0,0,0,0,0,0,0,0,0,0,0,0,0,0,0,0,0,0,0,0,0,0,0,0,0,0,0,0,
0,0,0,0,0,0,0,0,0,0,0,0,0,0,0,0,0,0,0,0,0,0,0,0,0,0,0,0,0,0,0,0,0,0,0,0,0,0,0,0,0,0,0,0,0,0,0,0,0,0,0,0,0,0,0,0,0,0,0,0,0,0,0,0,0,0,0,0,70,0,0,0,0,0,0,0,0,0,0,0,0,0,0,0,0,0,0,0,0,0,0,0,
0,0,0,0,0,0,0,0,0,0,0,0,0,0,0,0,0,0,0,0,0,0,0,0,0,0,0,0,0,0,0,0,86,0,0,0,0,0,0,0,0,0,0,0,0,0,0,0,0,0,0,0,0,0,0,0,0,0,0,0,0,0,0,0,0,0,0,0,86,0,0,0,0,0,0,0,0,0,0,0,0,0,0,0,0,0,0,0,0,0,0,0,
0,0,0,0,0,0,70,0,0,0,0,0,0,0,0,0,0,0,0,0,0,0,0,0,0,0,0,0,0,0,0,0,102,0,0,0,0,0,0,0,0,0,0,0,0,0,0,0,0,0,0,0,0,0,0,0,0,0,0,0,0,0,0,0,0,0,53,53,0,0,0,0,0,0,0,0,0,0,0,0,0,0,0,0,0,0,0,0,0,0,0,0,
0,0,0,0,0,0,86,0,0,0,0,0,0,0,0,0,0,0,0,0,0,0,0,0,0,0,26,0,0,0,0,0,0,0,0,0,0,0,0,0,0,0,0,0,0,0,0,0,0,0,0,0,0,0,70,0,0,0,0,0,0,0,0,0,0,0,26,26,26,26,26,26,26,85,9,9,9,9,9,9,9,9,0,0,0,0,0,0,70,0,0,0,
0,0,0,0,0,0,0,0,0,0,0,0,0,0,0,0,0,0,0,0,0,0,0,0,0,0,26,0,0,0,0,0,0,0,0,0,0,0,0,0,0,0,70,0,0,0,0,0,0,0,0,0,0,0,86,0,0,0,0,0,0,0,0,0,0,0,0,0,0,0,0,0,0,101,0,0,0,0,0,26,0,0,0,0,0,0,0,0,86,0,0,0,
0,0,0,0,0,250,0,0,0,0,0,0,0,0,0,0,0,0,0,0,0,0,0,0,0,0,26,0,0,0,0,0,0,0,0,0,0,0,0,0,0,0,86,0,0,0,0,0,0,0,0,0,0,0,0,0,0,0,0,0,0,0,0,0,0,0,0,0,0,0,0,0,0,0,0,0,0,0,0,26,0,0,0,0,0,0,0,0,0,0,0,0,
0,0,0,0,121,121,121,121,121,121,121,0,0,0,0,0,0,0,0,0,0,0,0,0,0,0,26,0,0,0,0,0,0,0,0,0,0,121,0,121,0,0,0,0,0,0,0,0,0,0,0,0,0,0,0,0,0,0,0,0,0,70,0,0,0,0,0,0,0,0,0,0,85,0,0,0,0,0,0,26,0,0,0,0,0,0,0,0,0,0,0,0,
0,0,0,0,0,0,0,0,0,0,0,0,85,0,0,70,0,0,0,0,0,0,0,0,0,0,26,0,0,0,0,0,0,0,0,0,0,0,85,121,0,0,0,0,0,0,0,0,0,0,0,0,0,0,0,0,232,231,0,0,0,86,0,0,0,0,0,0,0,0,0,0,101,0,0,0,0,250,0,26,0,0,0,0,0,0,0,0,0,0,0,0,
0,0,0,0,0,0,0,0,0,0,0,0,101,0,0,86,0,0,0,0,0,0,0,0,0,0,26,0,0,0,0,0,0,0,0,0,0,0,101,121,0,0,0,0,0,0,0,0,0,0,0,0,0,0,0,0,0,0,0,0,0,0,0,0,0,0,0,0,0,0,0,0,0,0,0,0,0,0,0,26,0,0,0,0,0,0,0,0,0,0,0,0,
0,0,0,0,0,0,0,0,0,70,0,0,0,0,0,0,0,0,0,0,0,0,0,0,0,0,26,0,53,53,0,0,0,0,0,0,0,0,0,121,121,0,0,0,0,0,0,0,0,0,0,0,0,0,0,0,0,70,0,0,0,0,0,0,0,0,0,0,0,0,0,85,0,0,0,0,0,0,0,26,0,0,0,0,0,0,0,0,0,0,0,0,
0,0,0,0,0,0,0,0,0,86,0,0,0,0,0,0,0,0,0,0,0,0,0,0,0,0,0,0,0,0,0,0,0,0,0,0,0,0,0,0,121,0,27,0,0,0,0,0,0,0,0,0,0,0,0,0,0,86,0,0,0,0,0,0,0,0,0,0,0,0,0,101,0,0,0,0,0,0,0,26,0,0,0,0,0,0,0,0,0,0,0,0,
0,0,0,0,0,0,0,0,0,0,0,0,0,0,0,0,0,0,0,0,0,53,53,0,0,0,0,0,0,0,0,0,0,0,0,0,0,0,0,0,0,0,0,0,0,0,0,0,0,0,0,0,0,0,0,0,0,0,0,0,0,0,0,0,0,0,0,0,0,0,0,0,0,0,0,0,0,0,0,26,0,53,53,0,0,0,0,0,0,0,0,0,
0,0,0,0,0,0,0,0,0,0,0,0,0,0,0,0,0,0,0,0,0,26,26,26,26,26,26,0,0,0,0,0,0,0,0,0,0,0,0,0,0,0,0,0,0,0,0,0,0,0,0,0,0,0,0,0,0,0,0,0,0,0,0,0,0,0,0,0,0,0,0,0,0,0,0,0,0,0,0,0,0,0,0,0,0,0,0,0,0,0,0,0,
0,0,0,0,0,0,0,0,0,0,0,0,0,0,0,0,0,0,0,0,0,0,0,0,0,0,0,0,0,0,0,0,0,0,0,0,0,0,0,0,0,0,0,0,0,0,0,0,0,0,0,0,0,0,0,0,0,0,0,0,0,0,0,0,0,0,0,0,0,0,0,0,0,0,0,0,0,0,0,0,0,0,0,0,0,0,0,0,0,0,0,0
</data>
 </layer>
</map>
